img/delete.svg

<svg width="14" height="14" viewBox="0 0 14 14" fill="none" xmlns="http://www.w3.org/2000/svg">
<path fill-rule="evenodd" clip-rule="evenodd" d="M12.1725 12.0393C12.5188 11.6931 12.5216 11.1345 12.1788 10.7918L8.39596 7.00896L12.048 3.35691C12.3908 3.01415 12.388 2.45562 12.0417 2.10939C11.6955 1.76315 11.137 1.76036 10.7942 2.10312L7.14217 5.75517L3.49003 2.10303C3.14727 1.76027 2.58875 1.76306 2.24251 2.1093C1.89628 2.45553 1.89348 3.01406 2.23624 3.35682L5.88839 7.00896L2.10547 10.7919C1.76271 11.1346 1.7655 11.6932 2.11174 12.0394C2.45797 12.3856 3.0165 12.3884 3.35926 12.0457L7.14218 8.26275L10.925 12.0456C11.2678 12.3883 11.8263 12.3855 12.1725 12.0393Z" fill="#FC6733"/>
</svg>

<svg width="14" height="14" viewBox="0 0 14 14" fill="none" xmlns="http://www.w3.org/2000/svg"><path fill-rule="evenodd" clip-rule="evenodd" d="M12.172 12.04a.882.882 0 0 0 .007-1.248L8.396 7.009l3.652-3.652a.882.882 0 0 0-.006-1.248.882.882 0 0 0-1.248-.006L7.142 5.755 3.49 2.103a.882.882 0 0 0-1.247.006.882.882 0 0 0-.007 1.248l3.652 3.652-3.783 3.783a.882.882 0 0 0 .007 1.247.882.882 0 0 0 1.247.007l3.783-3.783 3.783 3.783a.882.882 0 0 0 1.247-.007z" fill="#FC6733"/></svg>
